wp-content/themes/KOOEN/assets/img/common/back_anchor.svg

<svg width="49" height="19" viewBox="0 0 49 19" fill="none" xmlns="http://www.w3.org/2000/svg">
<path d="M9.704 13.368C9.704 14.248 9.56 14.984 9.272 15.576C9 16.168 8.648 16.648 8.216 17.016C7.784 17.368 7.304 17.624 6.776 17.784C6.264 17.928 5.768 18 5.288 18H0.944V1.008H4.784C5.264 1.008 5.76 1.072 6.272 1.2C6.784 1.328 7.248 1.552 7.664 1.872C8.096 2.176 8.448 2.6 8.72 3.144C8.992 3.672 9.128 4.344 9.128 5.16C9.128 5.736 9.056 6.24 8.912 6.672C8.784 7.088 8.608 7.456 8.384 7.776C8.16 8.08 7.904 8.336 7.616 8.544C7.328 8.736 7.032 8.888 6.728 9V9.048C7.032 9.112 7.36 9.24 7.712 9.432C8.064 9.624 8.384 9.896 8.672 10.248C8.976 10.584 9.224 11.016 9.416 11.544C9.608 12.056 9.704 12.664 9.704 13.368ZM7.568 5.4C7.568 4.84 7.48 4.368 7.304 3.984C7.144 3.6 6.92 3.296 6.632 3.072C6.36 2.832 6.048 2.664 5.696 2.568C5.344 2.472 4.984 2.424 4.616 2.424H2.528V8.448H4.664C5.016 8.448 5.36 8.392 5.696 8.28C6.048 8.168 6.36 7.992 6.632 7.752C6.904 7.496 7.128 7.176 7.304 6.792C7.48 6.408 7.568 5.944 7.568 5.4ZM8.048 13.272C8.048 12.632 7.952 12.096 7.76 11.664C7.568 11.216 7.32 10.856 7.016 10.584C6.712 10.312 6.368 10.112 5.984 9.984C5.616 9.856 5.256 9.792 4.904 9.792H2.528V16.584H4.904C5.336 16.584 5.744 16.52 6.128 16.392C6.512 16.264 6.848 16.064 7.136 15.792C7.424 15.52 7.648 15.176 7.808 14.76C7.968 14.344 8.048 13.848 8.048 13.272ZM21.0879 18L20.0559 13.752H14.8239L13.7439 18H12.0399L16.3599 1.008H18.6399L22.8399 18H21.0879ZM17.5119 2.52H17.4159L15.0639 12.408H19.8159L17.5119 2.52ZM35.1281 16.08C34.6801 16.832 34.1121 17.408 33.4241 17.808C32.7361 18.208 31.9601 18.408 31.0961 18.408C30.1681 18.408 29.3441 18.184 28.6241 17.736C27.9041 17.272 27.2961 16.648 26.8001 15.864C26.3041 15.064 25.9201 14.12 25.6481 13.032C25.3921 11.944 25.2641 10.768 25.2641 9.504C25.2641 8.224 25.3921 7.04 25.6481 5.952C25.9201 4.864 26.3041 3.928 26.8001 3.144C27.3121 2.344 27.9281 1.72 28.6481 1.272C29.3681 0.823999 30.1841 0.599999 31.0961 0.599999C31.8961 0.599999 32.6401 0.767999 33.3281 1.104C34.0321 1.44 34.6161 1.968 35.0801 2.688L34.0001 3.792C33.6321 3.232 33.2001 2.816 32.7041 2.544C32.2241 2.272 31.7121 2.136 31.1681 2.136C30.4641 2.136 29.8481 2.328 29.3201 2.712C28.8081 3.096 28.3761 3.624 28.0241 4.296C27.6881 4.968 27.4321 5.752 27.2561 6.648C27.0961 7.544 27.0161 8.496 27.0161 9.504C27.0161 10.512 27.1041 11.464 27.2801 12.36C27.4561 13.24 27.7121 14.016 28.0481 14.688C28.4001 15.36 28.8321 15.896 29.3441 16.296C29.8721 16.68 30.4881 16.872 31.1921 16.872C31.8001 16.872 32.3521 16.704 32.8481 16.368C33.3441 16.016 33.7521 15.56 34.0721 15L35.1281 16.08ZM46.0364 18L40.3724 9.288H40.3484V18H38.6924V1.008H40.3484V8.64H40.3724L45.7004 1.008H47.6444L41.9324 8.856L48.0524 18H46.0364Z" fill="#CCCCCC"/>
</svg>

<svg fill="none" height="19" viewBox="0 0 49 19" width="49" xmlns="http://www.w3.org/2000/svg"><path d="m9.704 13.368c0 .88-.144 1.616-.432 2.208-.272.592-.624 1.072-1.056 1.44-.432.352-.912.608-1.44.768-.512.144-1.008.216-1.488.216h-4.344v-16.992h3.84c.48 0 .976.064 1.488.192s.976.352 1.392.672c.432.304.784.728 1.056 1.272.272.528.408 1.2.408 2.016 0 .576-.072 1.08-.216 1.512-.128.416-.304.784-.528 1.104-.224.304-.48.56-.768.768-.288.192-.584.344-.888.456v.048c.304.064.632.192.984.384s.672.464.96.816c.304.336.552.768.744 1.296.192.512.288 1.12.288 1.824zm-2.136-7.968c0-.56-.088-1.032-.264-1.416-.16-.384-.384-.688-.672-.912-.272-.24-.584-.408-.936-.504s-.712-.144-1.08-.144h-2.088v6.024h2.136c.352 0 .696-.056 1.032-.168.352-.112.664-.288.936-.528.272-.256.496-.576.672-.96s.264-.848.264-1.392zm.48 7.872c0-.64-.096-1.176-.288-1.608-.192-.448-.44-.808-.744-1.08s-.648-.472-1.032-.6c-.368-.128-.728-.192-1.08-.192h-2.376v6.792h2.376c.432 0 .84-.064 1.224-.192s.72-.328 1.008-.6.512-.616.672-1.032.24-.912.24-1.488zm13.0399 4.728-1.032-4.248h-5.232l-1.08 4.248h-1.704l4.32-16.992h2.28l4.2 16.992zm-3.576-15.48h-.096l-2.352 9.888h4.752zm17.6162 13.56c-.448.752-1.016 1.328-1.704 1.728s-1.464.6-2.328.6c-.928 0-1.752-.224-2.472-.672-.72-.464-1.328-1.088-1.824-1.872-.496-.8-.88-1.744-1.152-2.832-.256-1.088-.384-2.264-.384-3.528 0-1.28.128-2.464.384-3.552.272-1.088.656-2.024 1.152-2.808.512-.8 1.128-1.424 1.848-1.872.72-.448001 1.536-.672001 2.448-.672001.8 0 1.544.168 2.232.504001.704.336 1.288.864 1.752 1.584l-1.08 1.104c-.368-.56-.8-.976-1.296-1.248-.48-.272-.992-.408-1.536-.408-.704 0-1.32.192-1.848.576-.512.384-.944.912-1.296 1.584-.336.672-.592 1.456-.768 2.352-.16.896-.24 1.848-.24 2.856s.088 1.96.264 2.856c.176.88.432 1.656.768 2.328.352.672.784 1.208 1.296 1.608.528.384 1.144.576 1.848.576.608 0 1.16-.168 1.656-.504.496-.352.904-.808 1.224-1.368zm10.9083 1.92-5.664-8.712h-.024v8.712h-1.656v-16.992h1.656v7.632h.024l5.328-7.632h1.944l-5.712 7.848 6.12 9.144z" fill="#ccc"/></svg>
